contributed-vectors/xiaomi_wear.svg

<svg xmlns="http://www.w3.org/2000/svg" width="192" height="192" fill="none"><path fill="#F9DE81" d="M162.5 19.5h-133c-5.523 0-10 4.477-10 10v133c0 5.523 4.477 10 10 10h133c5.523 0 10-4.477 10-10v-133c0-5.523-4.477-10-10-10Z"/><path stroke="#4A4A4A" stroke-width="15" d="M127.5 96c0 17.397-14.103 31.5-31.5 31.5S64.5 113.397 64.5 96 78.603 64.5 96 64.5s31.5 14.103 31.5 31.5Z"/></svg>

<svg width="192" height="192" viewBox="0 0 192 192" fill="none" xmlns="http://www.w3.org/2000/svg">
<path d="M162.5 19.5H29.5C23.9772 19.5 19.5 23.9772 19.5 29.5V162.5C19.5 168.023 23.9772 172.5 29.5 172.5H162.5C168.023 172.5 172.5 168.023 172.5 162.5V29.5C172.5 23.9772 168.023 19.5 162.5 19.5Z" fill="#F9DE81"/>
<path d="M127.5 96C127.5 113.397 113.397 127.5 96 127.5C78.603 127.5 64.5 113.397 64.5 96C64.5 78.603 78.603 64.5 96 64.5C113.397 64.5 127.5 78.603 127.5 96Z" stroke="#4A4A4A" stroke-width="15"/>
</svg>
